X: 4084
T: Blockers, The
R: reel
M: 4/4
K: Dmajor
|:FGAG FD (3DDD|=CA,G,A, =CDEG|Ad (3ddd cded||cAG=F E=C (3=CCC|
FGAG FD (3DDD|=CA,G,A, =CDEG|Ad (3ddd cded|1 cAGE D2 DE:|2 cAGE DEFA||
|:d2 Ad FdAF|~G3 A GECE|A,D (3DDD CDEG|FGAB cABc|
d2 dc dAFA|~G3 A GECE|A,D (3DDD CDEG|1 FDEC DEFA:|2 FDEC D2 DE||

